X:1
T:Tempo di MInuetto
T:Tempo di Minuetto
T:Tempo di Minuetto
T:3rd Movement from Trio Sonata A major (BR B3) "Musikalisches Vielerley" publ. 1770 (No. 18) adapted for Flute, Alto Flute in G and Cello 
T:Johann Christoph Friedrich Bach (1732-1795) "Bückeburg Bach" arr. Felix Scharpf 
T:Schlosstor Bückeburg
T:twoflutes 2020 / Felix Scharpf / https://commons.wikimedia.org/wiki/File:B%C3%BCckeburg_Schlosstor.jpg
T:twoflutes 2020 / Felix Scharpf / https://commons.wikimedia.org/wiki/File:B%C3%BCckeburg_Schlosstor.jpg
T:twoflutes 2020 / Felix Scharpf / https://commons.wikimedia.org/wiki/File:B%C3%BCckeburg_Schlosstor.jpg
T:twoflutes 2020 / Felix Scharpf / https://commons.wikimedia.org/wiki/File:B%C3%BCckeburg_Schlosstor.jpg
C:Johann Christoph Friedrich Bach ( )
Z:twoflutes 2020 / Felix Scharpf / https://commons.wikimedia.org/wiki/File:B%C3%BCckeburg_Schlosstor.jpg
%%score [ 1 2 3 ]
L:1/8
Q:1/8=130
M:3/8
K:A
V:1 treble nm="Flöte" snm="Fl."
V:2 treble transpose=-5 nm="Altflöte in G" snm="Afl."
V:3 bass nm="Violoncello" snm="Vc."
V:1
!mf! e'/(c'/b/a/g/a/) | (a/f/) f>f | (fe/)(d'/c'/b/) |!<(!{b} a3- | %4
 (3a/!<)!(e'/d'/) (3(c'/b/a/) (3(=g/f/g/) | (3(f/a/=g/) (3(f/e/d/ (3c/B/^A/) | %6
 (3(B/d/e/) (3(f/e/d/ (3c/B/A/) | (TAG) z |!mp! e'/(c'/b/a/g/a/) | (a/f/) f>f | (fe/)(d'/c'/b/) | %11
!<(!{b} a3- | a/!<)!e'/(c'/g/)(a/f/) | (f/e/)(e/d/)(d/c/) | (g/4f/4e/4d/4) (cTB) | A2 z :: %16
!mp! !>!e/(A/!<(!c/e/a/c'/) | !>!b/(G/B/e/g/b/) | (a/c'/)(f/a/)(g/e/) | (^d/f/)B z!<)! | %20
!mf! b/(g/f/e/^d/e/) | (e/c/) c>c | (cB/)(a/g/f/) |!<(!{f} e3-!<)! | e/e'/(c'/^a/)(f/e/) | %25
 (e/^d/)(f/a/)(g/e/) |!>(! (c/>f/) (eT^d) |{^d} e2 z!>)! |!mp! A(=gf) |{f} e2 e | %30
 c(d/>f/) (B/>A/) |{A} T=G2 F | (B/^d/f/a/)g |{g} f2!<(! e | ^d(e/>g/) (G/>B/) |({B} TA2 G)!<)! | %36
 z3 |!f! e(d'c') |!>(! c'(b/f/g/a/) | (3(g/a/b/)e z!>)! |!mf! e'/(c'/b/a/g/a/) | (a/f/) f>f | %42
 (fe/)(d'/c'/b/) |!<(!{b} a3- | a/!<)!e'/(c'/g/)(a/f/) | (f/e/)(e/d/)(d/c/) | %46
 (g/4f/4e/4d/4) (cTB) | !fermata!A2 z!fine! ::[K:C]!mp! (edc) | (TB/>c/d) z | (fed) | (Tc/>d/e) z | %52
!<(! f3- | f!<)!(e/b/c'/g/) | (b/4a/4g/4f/4) (eTd) | c2 z ::!mf! A(ag) |{g} f2 d |{d} ^c2 e | %59
 (d/f/)(e/g/)f |!mp! G(gf) |{f} e2 c |{c} B2 d | (c/e/)(d/f/)e |!<(! f3- | f/!<)!e/(d'/b/)(c'/a/) | %66
 (g/4f/4e/4d/4) (cTB) | A2 z!D.C.! :| %68
V:2
[K:D] z!mf! !tenuto!a!tenuto!a | z (d/^d/)(e/g/) | =d(c/B/A/G/) |{G} F2 G | A2 d | (d2 =c) | BGB | %7
 (FE) z | z!mp! !tenuto!a!tenuto!a | z (d/^d/)(e/g/) | =d(c/B/A/G/) |({G} F2 G) | A2 (B/g/) | %13
 e(cd) | (d/>e/) (dTc) | d2 z :: z!mp!!<(! !tenuto!d!tenuto!d | z !tenuto!c!tenuto!c | B(^GA) | %19
 (E/^G/)(B/d/)(c/B/)!<)! |!mf! c!tenuto!e!tenuto!e | z (A/^A/)(B/d/) | (=A^G/)f/(e/d/) | c(fe) | %24
 ^d2 f | (Be)e |!>(! d(cTB) |{B} c2 z!>)! | z3 |!mp! F(=cB) | A(B/>c/) (G/>B/) |({B} TA2 G) | z3 | %33
 (E/^G/)(B/d/)!<(!c | (Bc) (A/>c/) |{c} TB2 A!<)! |!f! A(gf) | (c2 d) |!>(! b2 b | a(ce)!>)! | %40
 z!mf! !tenuto!a!tenuto!a | z (d/^d/)(e/g/) | d(c/B/A/G/) | (F2 G) | A2 (B/g/) | e(cd) | %46
 (d/>e/) (dTc) | !fermata!d2 z ::[K:F]!p! (fed) | (T^c/>d/e) z | (gfe) | (Td/>e/f) z | %52
 z (d/f/)(e/g/) | (gf/)g/a | (c'/4b/4a/4g/4) (fTe) | f2 z ::!mf! (^F/A/d/)(F/A/d/) | %57
 (G/B/d/)(G/B/d/) | (A/c/d/)(A/c/d/) | (B/g/)(^f/a/)g |!mp! (E/G/c/)(E/G/c/) | (F/A/c/)(F/A/c/) | %62
 (G/B/c/)(G/B/c/) | (A/f/)(e/g/)f | z/ d/(g/f/e/d/) | (^c2 d) | (d/>e/) (dT^c) | d2 z :| %68
V:3
 z!mf! C,C, | z D,D, | E,E,E,, | (F,,/A,,/)(C,/F,/)(E,/D,/) | C,2 C, | (D,2 E,) | D,B,,D, | %7
 (E,2 D,) | z!mp! C,C, | z D,D, | z E,E,, | (F,,/A,,/)(C,/F,/)(E,/D,/) | C,A,,D, | G,E,A, | %14
 D,E,E,, | A,,E,A, :: z3 | z3 | z3 | z3 | z G,G, | z A,A,, | B,,B,B,, | (C,/E,/G,/C/^D/E/) | %24
 F,2 ^A,, | (B,,^D,E,) |!>(! (A,B,)B,, | E,E,D,!>)! |!mp! C,2 D, | A,,2 z | A,D,D,, | A,,A,D, | %32
 ^D,2 E, | B,,2!<(! z | B,E,E,, | B,,B,E,!<)! |!mf! G,2 A, | E,E,,A,, |!>(! D, z ^D, | E,E,D,!>)! | %40
!mf! C,C,C, | z D,D, | E,E,E,, | (F,,/A,,/)(C,/F,/)(E,/D,/) | C,A,,D, | G,E,A, | D,E,E,, | %47
 !fermata!A,,E,A, ::[K:C]!p! A,2 A,, | E,>(E,,^G,,/B,,/) | E,2 E,, | A,,(A,/E,/C,/A,,/) | D,DG, | %53
 C,CC, | F,G,G,, | C,G,C :: A,,2 z | A,,2 z | A,,2 z | z A,D, | G,,2 z | G,,2 z | G,,2 z | z G,C, | %64
 D,B,,D, | E,E,,A,, | D,E,E,, | A,,E,A, :| %68

